images/icons/login-btn.svg

<svg width="22" height="15" viewBox="0 0 22 15" fill="none" xmlns="http://www.w3.org/2000/svg">
<path fill-rule="evenodd" clip-rule="evenodd" d="M19.7083 0H2.29167C1.02667 0 0 0.949152 0 2.11864V12.8814C0 14.0508 1.02667 15 2.29167 15H19.7083C20.9733 15 22 14.0508 22 12.8814V2.11864C22 0.949152 20.9733 0 19.7083 0ZM8.9393 5.13898C8.9393 6.34915 7.87963 7.32881 6.57063 7.32881C5.2653 7.32881 4.20563 6.34915 4.20197 5.13898C4.20197 3.92881 5.26163 2.94915 6.57063 2.94915C7.87963 2.94915 8.9393 3.92881 8.9393 5.13898ZM8.02263 5.14237C8.02263 4.4 7.37363 3.8 6.57063 3.8C5.7713 3.8 5.11863 4.40339 5.11863 5.14237C5.11863 5.88474 5.76763 6.48474 6.57063 6.48474C7.37363 6.48474 8.02263 5.88474 8.02263 5.14237ZM3.99667 9.1356C4.67134 8.49154 5.60267 8.13222 6.57067 8.139C7.54234 8.13222 8.47367 8.49154 9.14834 9.1356C9.83768 9.78645 10.2117 10.6678 10.2117 11.6237C10.2117 11.8576 10.0063 12.0475 9.75334 12.0475H3.39167C3.13867 12.0475 2.93334 11.8576 2.93334 11.6237C2.93334 10.6644 3.30734 9.78306 3.99667 9.1356ZM4.65301 9.72882C4.23134 10.1288 3.96001 10.6475 3.88301 11.2H9.26568C9.18501 10.6441 8.91734 10.1288 8.49568 9.72882C7.98601 9.25425 7.29667 8.98645 6.57434 8.98645C5.85201 8.98645 5.15901 9.25425 4.65301 9.72882ZM13.2403 7.07797H18.5827C18.8357 7.07797 19.0373 7.2678 19.0373 7.5017C19.0373 7.7356 18.832 7.92543 18.579 7.92543H13.2403C12.9873 7.92543 12.782 7.7356 12.782 7.5017C12.782 7.2678 12.9873 7.07797 13.2403 7.07797ZM18.5827 9.78983H13.2403C12.9873 9.78983 12.782 9.97966 12.782 10.2136C12.782 10.4475 12.9873 10.6373 13.2403 10.6373H18.579C18.832 10.6373 19.0373 10.4475 19.0373 10.2136C19.0373 9.97966 18.8357 9.78983 18.5827 9.78983ZM13.2403 4.36611H18.5827C18.8357 4.36611 19.0373 4.55594 19.0373 4.78984C19.0373 5.02374 18.832 5.21357 18.579 5.21357H13.2403C12.9873 5.21357 12.782 5.02374 12.782 4.78984C12.782 4.55594 12.9873 4.36611 13.2403 4.36611Z" fill="#1C2D5A"/>
</svg>

<svg width="22" height="15" fill="none" xmlns="http://www.w3.org/2000/svg"><path fill-rule="evenodd" clip-rule="evenodd" d="M19.708 0H2.292C1.027 0 0 .95 0 2.119V12.88C0 14.051 1.027 15 2.292 15h17.416C20.973 15 22 14.05 22 12.881V2.12C22 .949 20.973 0 19.708 0ZM8.94 5.139c0 1.21-1.06 2.19-2.368 2.19-1.306 0-2.365-.98-2.369-2.19 0-1.21 1.06-2.19 2.369-2.19 1.309 0 2.368.98 2.368 2.19Zm-.916.003c0-.742-.65-1.342-1.452-1.342-.8 0-1.452.603-1.452 1.342 0 .743.649 1.343 1.452 1.343.803 0 1.452-.6 1.452-1.343ZM3.997 9.136a3.696 3.696 0 0 1 2.574-.997c.971-.007 1.903.353 2.577.997a3.379 3.379 0 0 1 1.064 2.488c0 .234-.206.423-.459.423H3.392c-.253 0-.459-.19-.459-.423 0-.96.374-1.84 1.064-2.488Zm.656.593c-.422.4-.693.919-.77 1.471h5.383a2.525 2.525 0 0 0-.77-1.471 2.82 2.82 0 0 0-1.922-.743c-.722 0-1.415.268-1.921.743Zm8.587-2.651h5.343c.253 0 .454.19.454.424 0 .234-.205.423-.458.423H13.24c-.253 0-.458-.19-.458-.423 0-.234.205-.424.458-.424Zm5.343 2.712H13.24c-.253 0-.458.19-.458.424 0 .233.205.423.458.423h5.339c.253 0 .458-.19.458-.423 0-.234-.201-.424-.454-.424ZM13.24 4.366h5.343c.253 0 .454.19.454.424 0 .234-.205.424-.458.424H13.24c-.253 0-.458-.19-.458-.424 0-.234.205-.424.458-.424Z" fill="#1C2D5A"/></svg>
